#title Shizuoka
#author Junichi Masuda

A {
	t114
	@vol(7 7)
	
	@duty(3) @tone(1) @vib(18 1 5)
	
	r
	
@l
	@env(12 2)
	l8<
		fda+d
		fda+d
		fda+d
		dc<a+a>
		d+cgc
		d+cgc
		fcac
		agaf

		fda+d
		fda+d
		fda+a
		a+agf

		d+cgd+
		gfga+
		afb+f
		afb+f

	@env(12 7)
	l4.
		b+a+g4a1
		b+a+>d4d+dc4
		c<a+g4a1
		b+a+>d4f2.
	l8
		<a+>c
	}

B {
	@duty(3) @vib(8 2 6)
	@env(13 3)
	<a+8>c8
@l
	@env(13 4)
	dfl8d+dc<a+>d4.<a+f4.d+16f16
	g4a+4b+a+aa+>c4.dc4.

	<a+16>c16
	
	d4f4f+fd+f+l4.fa8a+
	c16d16
	
	@env(13 7)
	d+f8g2ff16g16a2
	gfd+4c1gfa+4a1gfd+4c1gfa+4a1
}

C {
	@env(1 3) // wave instrument
	r

@l
	l4.fda+4fdf4gd+a+4agf4a+da+4fda+4d+gd+4fga4ga+g4l8afb+fafb+fg4.a+4.g4
	af>cdd+dc<ag4.a+4.g4afb+fafb+fl4.ga+>d4fd+c4<
}